X: 11789
T: Elizabeth's Plymsoles
R: jig
M: 6/8
K: Dmajor
G,|A,3F2E-|EFA F3|G2F GAc|dAF E2D|
A,3F2E-|EFA F3|G2F GAE-|EDC D2:|
A|B2F- FBd|cAE F3|G2F GAc|dAF E2D|
B2F- FBd|eAE F3|G2F GAE-|EDC D2A|
B2F- FBd|cAE F3|G2F GAc|dcd ecA|
B2G- GBd|ecA f3|g2f gae-|edc d2||

